src/flags/country-flag/1F1E7-1F1F3.svg

<svg id="emoji" viewBox="0 0 72 72" xmlns="http://www.w3.org/2000/svg">
  <g id="grid">
    <path fill="#b3b3b3" d="M68,4V68H4V4H68m4-4H0V72H72V0Z"/>
    <path fill="none" stroke="#00a5ff" stroke-miterlimit="10" stroke-width="0.1" d="M12.923,10.9583H59.0769A1.9231,1.9231,0,0,1,61,12.8814V59.0352a1.9231,1.9231,0,0,1-1.9231,1.9231H12.9231A1.9231,1.9231,0,0,1,11,59.0352V12.8813A1.923,1.923,0,0,1,12.923,10.9583Z"/>
    <rect x="16" y="4" rx="2.2537" ry="2.2537" width="40" height="64" fill="none" stroke="#00a5ff" stroke-miterlimit="10" stroke-width="0.1"/>
    <rect x="16" y="4" rx="2.2537" ry="2.2537" width="40" height="64" transform="translate(72) rotate(90)" fill="none" stroke="#00a5ff" stroke-miterlimit="10" stroke-width="0.1"/>
    <circle cx="36" cy="36" r="29" fill="none" stroke="#00a5ff" stroke-miterlimit="10" stroke-width="0.1"/>
  </g>
  <g id="color">
    <rect x="5" y="17" width="62" height="38" fill="#f1b31c"/>
    <path fill="#fff" stroke="#fff" stroke-miterlimit="10" d="M5,19v5L67,47V42Z"/>
    <path stroke="#000" stroke-miterlimit="10" d="M5,25v5L67,53V48Z"/>
    <g>
      <circle cx="36" cy="37.25" r="6" fill="none" stroke="#d22f27" stroke-linecap="round" stroke-linejoin="round" stroke-width="2"/>
      <line x1="36" x2="36" y1="26.25" y2="43.25" fill="none" stroke="#d22f27" stroke-linecap="round" stroke-linejoin="round" stroke-width="2"/>
      <line x1="42" x2="30" y1="31.25" y2="31.25" fill="none" stroke="#d22f27" stroke-linecap="round" stroke-linejoin="round" stroke-width="2"/>
      <line x1="42" x2="30" y1="43.25" y2="43.25" fill="none" stroke="#d22f27" stroke-linecap="round" stroke-linejoin="round" stroke-width="2"/>
      <line x1="26" x2="26" y1="43.75" y2="31.75" fill="none" stroke="#d22f27" stroke-linecap="round" stroke-linejoin="round" stroke-width="2"/>
      <line x1="46" x2="46" y1="43.25" y2="31.25" fill="none" stroke="#d22f27" stroke-linecap="round" stroke-linejoin="round" stroke-width="2"/>
    </g>
  </g>
  <g id="line">
    <rect x="5" y="17" width="62" height="38" fill="none" stroke="#000" stroke-linecap="round" stroke-linejoin="round" stroke-width="2"/>
  </g>
</svg>

<svg viewBox="0 0 72 72" xmlns="http://www.w3.org/2000/svg"><path fill="#b3b3b3" d="M68 4v64H4V4h64m4-4H0v72h72V0z"/><path fill="none" stroke="#00a5ff" stroke-miterlimit="10" stroke-width=".1" d="M12.923 10.958h46.154A1.923 1.923 0 0161 12.881v46.154a1.923 1.923 0 01-1.923 1.923H12.923A1.923 1.923 0 0111 59.035V12.881a1.923 1.923 0 011.923-1.923z"/><rect x="16" y="4" rx="2.254" ry="2.254" width="40" height="64" fill="none" stroke="#00a5ff" stroke-miterlimit="10" stroke-width=".1"/><rect x="16" y="4" rx="2.254" ry="2.254" width="40" height="64" transform="rotate(90 36 36)" fill="none" stroke="#00a5ff" stroke-miterlimit="10" stroke-width=".1"/><circle cx="36" cy="36" r="29" fill="none" stroke="#00a5ff" stroke-miterlimit="10" stroke-width=".1"/><path d="M5 17h62v38H5z" stroke-linecap="round" stroke-miterlimit="10" stroke-width="6" stroke="#fff" fill="none" stroke-linejoin="round"/><path fill="#f1b31c" d="M5 17h62v38H5z"/><path fill="#fff" stroke="#fff" stroke-miterlimit="10" d="M5 19v5l62 23v-5z"/><path stroke="#000" stroke-miterlimit="10" d="M5 25v5l62 23v-5z"/><g fill="none" stroke="#d22f27" stroke-linecap="round" stroke-linejoin="round" stroke-width="2"><circle cx="36" cy="37.25" r="6"/><path d="M36 26.25v17m6-12H30m12 12H30m-4 .5v-12m20 11.5v-12"/></g><g><path fill="none" stroke="#000" stroke-linecap="round" stroke-linejoin="round" stroke-width="2" d="M5 17h62v38H5z"/></g></svg>
